icons/logo-github-16.svg

<svg width="45" height="16" viewBox="0 0 45 16" fill="none" xmlns="http://www.w3.org/2000/svg">
<path fill-rule="evenodd" clip-rule="evenodd" d="M18.53 12.0301H18.51C18.519 12.0301 18.525 12.0391 18.534 12.0411C18.535 12.0411 18.539 12.0401 18.54 12.0401L18.53 12.0301ZM18.534 12.0411C18.441 12.0421 18.207 12.0901 17.96 12.0901C17.18 12.0901 16.91 11.7301 16.91 11.2601V8.13008H18.5C18.59 8.13008 18.66 8.05008 18.66 7.94008V6.24008C18.66 6.15008 18.58 6.07008 18.5 6.07008H16.91V3.96008C16.91 3.88008 16.86 3.83008 16.77 3.83008H14.61C14.52 3.83008 14.47 3.88008 14.47 3.96008V6.13008C14.47 6.13008 13.38 6.40008 13.31 6.41008C13.23 6.43008 13.18 6.50008 13.18 6.58008V7.94008C13.18 8.05008 13.26 8.13008 13.35 8.13008H14.46V11.4101C14.46 13.8501 16.16 14.1001 17.32 14.1001C17.85 14.1001 18.49 13.9301 18.59 13.8801C18.65 13.8601 18.68 13.7901 18.68 13.7201V12.2201C18.68 12.1211 18.612 12.0551 18.534 12.0411ZM42.23 9.84004C42.23 8.03004 41.5 7.79004 40.73 7.87004C40.13 7.91004 39.65 8.21004 39.65 8.21004V11.73C39.65 11.73 40.14 12.07 40.87 12.09C41.9 12.12 42.23 11.75 42.23 9.84004ZM44.66 9.6801C44.66 13.1101 43.55 14.0901 41.61 14.0901C39.97 14.0901 39.09 13.2601 39.09 13.2601C39.09 13.2601 39.05 13.7201 39 13.7801C38.97 13.8401 38.92 13.8601 38.86 13.8601H37.38C37.28 13.8601 37.19 13.7801 37.19 13.6901L37.21 2.5801C37.21 2.4901 37.29 2.4101 37.38 2.4101H39.51C39.6 2.4101 39.68 2.4901 39.68 2.5801V6.3501C39.68 6.3501 40.5 5.8201 41.7 5.8201L41.69 5.8001C42.89 5.8001 44.66 6.25009 44.66 9.6801ZM35.94 6.07007H35.93H33.84C33.73 6.07007 33.67 6.15007 33.67 6.26007V11.7001C33.67 11.7001 33.12 12.0901 32.37 12.0901C31.62 12.0901 31.4 11.7501 31.4 11.0001V6.25007C31.4 6.16007 31.32 6.08007 31.23 6.08007H29.09C29 6.08007 28.92 6.16007 28.92 6.25007V11.3601C28.92 13.5601 30.15 14.1101 31.84 14.1101C33.23 14.1101 34.36 13.3401 34.36 13.3401C34.36 13.3401 34.41 13.7301 34.44 13.7901C34.46 13.8401 34.53 13.8801 34.6 13.8801H35.94C36.05 13.8801 36.11 13.8001 36.11 13.7101L36.13 6.24007C36.13 6.15007 36.05 6.07007 35.94 6.07007ZM12.24 6.06006H10.11C10.02 6.06006 9.94 6.15006 9.94 6.26006V13.6001C9.94 13.8001 10.07 13.8701 10.24 13.8701H12.16C12.36 13.8701 12.41 13.7801 12.41 13.6001V6.24006V6.23006C12.41 6.14006 12.33 6.06006 12.24 6.06006ZM11.19 2.68005C10.42 2.68005 9.81 3.29005 9.81 4.06005C9.81 4.83005 10.42 5.44005 11.19 5.44005C11.94 5.44005 12.55 4.83005 12.55 4.06005C12.55 3.29005 11.94 2.68005 11.19 2.68005ZM27.68 2.43005H25.57C25.48 2.43005 25.4 2.51005 25.4 2.60005V6.69005H22.09V2.60005C22.09 2.51005 22.01 2.43005 21.92 2.43005H19.79C19.7 2.43005 19.62 2.51005 19.62 2.60005V13.7101C19.62 13.8001 19.71 13.8801 19.79 13.8801H21.92C22.01 13.8801 22.09 13.8001 22.09 13.7101V8.96005H25.4L25.38 13.7101C25.38 13.8001 25.46 13.8801 25.55 13.8801H27.68C27.77 13.8801 27.85 13.8001 27.85 13.7101V2.60005C27.85 2.51005 27.77 2.43005 27.68 2.43005ZM8.81 7.35007V13.0901C8.81 13.1301 8.8 13.2001 8.75 13.2201C8.75 13.2201 7.5 14.1101 5.44 14.1101C2.95 14.1101 0 13.3301 0 8.19007C0 3.05007 2.58 1.99007 5.1 2.00007C7.28 2.00007 8.16 2.49007 8.3 2.58007C8.34 2.63007 8.36 2.67007 8.36 2.72007L7.94 4.50007C7.94 4.59007 7.85 4.70007 7.74 4.67007C7.38 4.56007 6.84 4.34007 5.57 4.34007C4.1 4.34007 2.52 4.76007 2.52 8.07007C2.52 11.3801 4.02 11.7701 5.1 11.7701C6.02 11.7701 6.35 11.6601 6.35 11.6601V9.36007H4.88C4.77 9.36007 4.69 9.28007 4.69 9.19007V7.35007C4.69 7.26007 4.77 7.18007 4.88 7.18007H8.62C8.73 7.18007 8.81 7.26007 8.81 7.35007Z" fill="#1B1F23"/>
</svg>

<svg xmlns="http://www.w3.org/2000/svg" width="45" height="16" viewBox="0 0 45 16"><path fill-rule="evenodd" d="M18.53 12.03h-.02c.009 0 .015.01.024.011h.006l-.01-.01zm.004.011c-.093.001-.327.05-.574.05-.78 0-1.05-.36-1.05-.83V8.13h1.59c.09 0 .16-.08.16-.19v-1.7c0-.09-.08-.17-.16-.17h-1.59V3.96c0-.08-.05-.13-.14-.13h-2.16c-.09 0-.14.05-.14.13v2.17s-1.09.27-1.16.28c-.08.02-.13.09-.13.17v1.36c0 .11.08.19.17.19h1.11v3.28c0 2.44 1.7 2.69 2.86 2.69.53 0 1.17-.17 1.27-.22.06-.02.09-.09.09-.16v-1.5a.177.177 0 00-.146-.18zM42.23 9.84c0-1.81-.73-2.05-1.5-1.97-.6.04-1.08.34-1.08.34v3.52s.49.34 1.22.36c1.03.03 1.36-.34 1.36-2.25zm2.43-.16c0 3.43-1.11 4.41-3.05 4.41-1.64 0-2.52-.83-2.52-.83s-.04.46-.09.52c-.03.06-.08.08-.14.08h-1.48c-.1 0-.19-.08-.19-.17l.02-11.11c0-.09.08-.17.17-.17h2.13c.09 0 .17.08.17.17v3.77s.82-.53 2.02-.53l-.01-.02c1.2 0 2.97.45 2.97 3.88zm-8.72-3.61h-2.1c-.11 0-.17.08-.17.19v5.44s-.55.39-1.3.39-.97-.34-.97-1.09V6.25c0-.09-.08-.17-.17-.17h-2.14c-.09 0-.17.08-.17.17v5.11c0 2.2 1.23 2.75 2.92 2.75 1.39 0 2.52-.77 2.52-.77s.05.39.08.45c.02.05.09.09.16.09h1.34c.11 0 .17-.08.17-.17l.02-7.47c0-.09-.08-.17-.19-.17zm-23.7-.01h-2.13c-.09 0-.17.09-.17.2v7.34c0 .2.13.27.3.27h1.92c.2 0 .25-.09.25-.27V6.23c0-.09-.08-.17-.17-.17zm-1.05-3.38c-.77 0-1.38.61-1.38 1.38 0 .77.61 1.38 1.38 1.38.75 0 1.36-.61 1.36-1.38 0-.77-.61-1.38-1.36-1.38zm16.49-.25h-2.11c-.09 0-.17.08-.17.17v4.09h-3.31V2.6c0-.09-.08-.17-.17-.17h-2.13c-.09 0-.17.08-.17.17v11.11c0 .09.09.17.17.17h2.13c.09 0 .17-.08.17-.17V8.96h3.31l-.02 4.75c0 .09.08.17.17.17h2.13c.09 0 .17-.08.17-.17V2.6c0-.09-.08-.17-.17-.17zM8.81 7.35v5.74c0 .04-.01.11-.06.13 0 0-1.25.89-3.31.89-2.49 0-5.44-.78-5.44-5.92S2.58 1.99 5.1 2c2.18 0 3.06.49 3.2.58.04.05.06.09.06.14L7.94 4.5c0 .09-.09.2-.2.17-.36-.11-.9-.33-2.17-.33-1.47 0-3.05.42-3.05 3.73s1.5 3.7 2.58 3.7c.92 0 1.25-.11 1.25-.11v-2.3H4.88c-.11 0-.19-.08-.19-.17V7.35c0-.09.08-.17.19-.17h3.74c.11 0 .19.08.19.17z"/></svg>
